!!!OTL: Cailín gaelech, S. 54
!!!id: I0511
**kern
*clefG2
*k[b-]
*F:
{16f
=1
16f
4f
8g
8a
4b-
=2
4cc
4.dd
16cc
16b-
=3
2a
8g
8f
=4
4d
8f
4c}
=5
{8c
=6
4.f
8g
4a
=7
4a
8g
8f
8.g
16a
=8
[2g
8g]
8f
=9
2.g}
=10
{2a
8g
8f
=11
4d
8f
4c
8c
=12
4f
2a
=13
4.c
4c}
=14
{8c
=15
4.f
8g
4a
=16
4a
16g
16f
4a
8g
=17
4f
2f
=18
2.f}
==
*-
!!!minrhy: 16
!!!meters: 6/8 ]  ZZ[4
!!!cut: Cailín gaelech, S. 54
!!!reg: Irland
!!!trd: O BOYLE, Sean: 25 Irish Folksongs, Dublin 1976
!!!rhy1:   X__X_X_X__  X__X__.XX  X___X_X_  X__X_X__
!!!rhy2: X_  X__.X_X__  X__X_X_X_.X  X___^_X_  X___.
!!!key: I0511  16  F 6/8 ]  ZZ[4
!!!mod: SECHSTONSKALA DUR ?]  AMBITUS[9
!!!kad: -52-51
!!!akz: 135633-6-5_12312222_33-6-513-5-5_12331111_
!!!fot: 'a__b__c__d__
!!!for: 'a__b__c__d__
!!!fok: '^d_/__Sd_^a_
!! PHRAS[GEMISCHTTAKTIG]
!!!fkt: "Pastorale"
!! IRISCHE VKL.
!! PR[30] 2K[7] 2G[26] 3K[2] 3G[0] 4A[0] 4Ü[0] 5A[0] 6K[0] 6G[0]
!! 7K[2] 7G[0] 8A[0] MEHR[0] SI[37] ABS[43] SR[33] SP[5]
!! ST[16] 2k[2] 2g[16] 3k[7] 3g[2] 4d[5] 4ü[0] 5d[0] 6k[0] 6g[0]
!! 7k[0] 7g[0] 8d[0] mehr[0] si[33] dm[+4] sr[19] sp[14]
!! 1F[61] 2F[34] 3F[2] 4F[0] LF[0] 2P[2] 3P[0] 4P[0] TRI[0] DF[4] AB[44]
!! TF[0] U3K[0] U3[0] U4[0] U4Ü[0] U5[0] U6K[0] U6[0] U7K[0] U7[0]
!! N1[14] N2K[0] N2[14] N3K[0] N3[2] N4[18] N4Ü[0] N5[16] N6K[0] N6[11]
!!!n7k: 11] N7[0] O1[7] O2K[0] O2[7] O3K[0] O3[0] HÖ[0
